src/images/icon-social-octocat.svg

<svg width="22" height="21" viewBox="0 0 22 21" fill="none" xmlns="http://www.w3.org/2000/svg">
<path fill-rule="evenodd" clip-rule="evenodd" d="M10.9998 0.894775C5.41678 0.894775 0.894531 5.42322 0.894531 11C0.894531 15.4665 3.7915 19.2505 7.80507 20.5904C8.30754 20.6835 8.49364 20.3733 8.49364 20.1004C8.49364 19.8584 8.48744 19.2257 8.48123 18.382C5.67111 18.99 5.07559 17.0297 5.07559 17.0297C4.61654 15.8635 3.95278 15.5533 3.95278 15.5533C3.03469 14.9268 4.02102 14.9392 4.02102 14.9392C5.03217 15.0136 5.57186 15.9813 5.57186 15.9813C6.47135 17.526 7.93534 17.0793 8.51225 16.8188C8.6053 16.1674 8.86584 15.7208 9.15119 15.4665C6.90558 15.2121 4.54831 14.3436 4.54831 10.4728C4.54831 9.36856 4.93912 8.46907 5.59047 7.76189C5.48501 7.50755 5.13762 6.47779 5.68972 5.08824C5.68972 5.08824 6.53958 4.8153 8.46882 6.1242C9.27526 5.90088 10.1375 5.78922 10.9998 5.78302C11.8559 5.78922 12.7243 5.90088 13.5308 6.1242C15.46 4.8153 16.3099 5.08824 16.3099 5.08824C16.862 6.47779 16.5146 7.50755 16.4091 7.76189C17.0543 8.46907 17.4451 9.36856 17.4451 10.4728C17.4451 14.3561 15.0816 15.2059 12.8298 15.4602C13.1896 15.7704 13.5184 16.3908 13.5184 17.3337C13.5184 18.686 13.5059 19.7716 13.5059 20.1066C13.5059 20.3795 13.6858 20.6897 14.2007 20.5904C18.2143 19.2505 21.1051 15.4665 21.1051 11.0062C21.1051 5.42322 16.5828 0.894775 10.9998 0.894775Z" fill="#191717"/>
</svg>

<svg xmlns="http://www.w3.org/2000/svg" fill="none" viewBox="0 0 22 21"><path fill="#191717" fill-rule="evenodd" d="M11 .9a10.1 10.1 0 00-3.2 19.7c.5 0 .7-.2.7-.5v-1.7C5.7 19 5 17 5 17 4.6 16 4 15.6 4 15.6c-1-.7 0-.7 0-.7 1 .1 1.6 1 1.6 1 .9 1.6 2.3 1.2 3 1 0-.7.3-1.2.6-1.4-2.3-.3-4.7-1.2-4.7-5 0-1.1.4-2 1-2.7 0-.3-.4-1.3.2-2.7 0 0 .8-.3 2.8 1a9.8 9.8 0 015 0c2-1.3 2.8-1 2.8-1 .6 1.4.2 2.4.1 2.7a4 4 0 011 2.7c0 3.9-2.3 4.7-4.6 5 .4.3.7.9.7 1.8v2.8c0 .3.2.6.7.5A10.1 10.1 0 0011 .9z" clip-rule="evenodd"/></svg>
